!!!COM: Hummel, Johann Nepomuk
!!!CDT: 1778/11/14/-1837/10/17/
!!!OTL: Prelude in D Minor, Op. 67, No. 24
!!!OPS: Op. 67
!!!ONM: No. 24
!!!OMD: Allegro spiritoso
!!!ODT: 1815///
!!!AIN: piano
**kern	**kern	**dynam
*staff2	*staff1	*staff1/2
*Ipiano	*Ipiano	*Ipiano
*clefF4	*clefG2	*clefG2
*k[b-]	*k[b-]	*k[b-]
*d:	*d:	*d:
*met(C)	*met(C)	*met(C)
*M4/4	*M4/4	*M4/4
*MM128	*MM128	*MM128
=1-	=1-	=1-
*^	*	*
4r	4DD\	1r	f
16D/LL	4r	.	.
16C#/	.	.	.
16E/	.	.	.
16D/JJ	.	.	.
16F/LL	2r	.	.
16E/	.	.	.
16G/	.	.	.
16F/JJ	.	.	.
16A/LL	.	.	.
16G#/	.	.	.
16B-/	.	.	.
16A/JJ	.	.	.
*v	*v	*	*
=2	=2	=2
1r	16d/LL	f
.	16c#/	.
.	16e/	.
.	16d/JJ	.
.	16f/LL	.
.	16e/	.
.	16g/	.
.	16f/JJ	.
.	16a/LL	.
.	16g#/	.
.	16b-/	.
.	16a/JJ	.
.	16dd\LL	.
.	16cc#\	.
.	16ee\	.
.	16dd\JJ	.
=3	=3	=3
1r	16ff\LL	.
.	16ee\	.
.	16gg\	.
.	16ff\JJ	.
.	16aa\LL	.
.	16gg#\	.
.	16bb-\	.
.	16aa\JJ	.
.	16ddd\LL	.
.	16ccc#\	.
.	16eee\	.
.	16ddd\JJ	.
.	16fff\LL	.
.	16eee\	.
.	16ggg\	.
.	16fff\JJ	.
*clefG2	*	*
=4	=4	=4
8ff''\L	(16aaa^\LL	.
.	16aa\	.
8ee''\	16ggg\	.
.	16gg\JJ	.
8dd''\	16fff\LL	.
.	16ff\	.
8cc''\J	16eee\	.
.	16ee\JJ	.
8b-''/L	16ddd\LL	.
.	16dd\	.
8a''/	16cccn\	.
.	16ccn\JJ	.
8g''/	16bb-\LL	.
.	16b-\	.
8f''/J	16aa\	.
.	16a\JJ	.
=5	=5	=5
8e''/L	16gg\LL	.
.	16g\	.
8d''/	16ff\	.
.	16f\JJ	.
8c#''/	16ee\LL	.
.	16e\	.
8B-''/J	16dd\	.
.	16d\JJ	.
*clefF4	*	*
8A''\L	16cc#/LL	.
.	16c#/	.
8G''\	16b-/	.
.	16B-/JJ	.
8F''\	16a/LL	.
.	16A/	.
8E''\J	16g/	.
.	16G/JJ	.
=6	=6	=6
4D\	4f/)	.
4CCn/ 4Cn/	4A/ 4d/ (4f#/	sf
4BBB-/ 4BBn/	4G/ 4d/ 4g/	sf
4BBB-/ 4BB-/	4G#/ 4d/ 4fn/ 4g#/)	sf
=7	=7	=7
*^	*	*
2AAA/ 2AA/	4FF 4DD	2A/ 2d/ 2f/ 2a/	f
.	4r	.	.
*	*	*clefF4	*clefF4
2AAA/ 2AA/	4EE 4CC#	[2E\ [2G\ [2A\ [2c#\	p
.	4r	.	.
*v	*v	*	*
=8	=8	=8
1DD 1AA 1D	2E\] 2G\] 2A\] (2c#\]	.
.	2F\ 2A\ 2d\)	.
==	==	==
*-	*-	*-
!!!ENC: Craig Stuart Sapp
!!!EED: 2008/06/12/
!!!EEV: 2008/06/12/
!!!YEC: Copyright 2008 by Craig Stuart Sapp
!!!YEN: United States of America
